icons/trophy-two-color.svg

<?xml version="1.0" encoding="UTF-8"?><svg xmlns="http://www.w3.org/2000/svg" viewBox="0 0 50 50"><g id="uuid-949f5f11-d08e-4765-84da-156234762ad5"><g><path d="M36.43,47.73v-11.23h-5.26c-.31-1.61-1.23-2.79-2.33-2.79h-1.71c-.02-1.77-.04-3.55-.07-5.32,1.54-.18,3.26-1.18,4.89-2.87,3.65-3.78,7.45-11.69,7.27-22.64H13.64c-.1,11.01,3.79,18.93,7.51,22.69,.92,.93,1.86,1.65,2.79,2.13,.02,2,.03,4,.05,6.01h-2.33c-1.1,0-2.02,1.18-2.33,2.79h-2.76v11.23h-1.53v1.89h22.92v-1.89h-1.53Zm-4.62-4.93h-13.61v-4.18h13.61v4.18Z" fill="#ffcd00"/><g><path d="M17.19,38.12v5.18c0,.28,.22,.5,.5,.5h14.61c.28,0,.5-.22,.5-.5v-5.18c0-.28-.22-.5-.5-.5h-14.61c-.28,0-.5,.22-.5,.5Zm1,.5h13.61v4.18h-13.61v-4.18Z"/><path d="M31.17,24.71c.9-.93,1.81-2.12,2.67-3.51,2.47-.62,4.7-1.82,6.47-3.49,3.33-3.15,5.08-7.83,5.08-10.81,0-1.39-.36-2.48-1.05-3.14-1.08-1.03-2.98-1.07-5.64-.15,.03-.89,.04-1.8,.02-2.74,0-.27-.23-.49-.5-.49H11.64c-.27,0-.49,.22-.5,.49-.02,.92,0,1.81,.03,2.69-2.59-.87-4.45-.81-5.51,.2-.7,.67-1.06,1.76-1.06,3.17,.01,2.99,1.77,7.66,5.09,10.78,1.75,1.64,3.97,2.82,6.42,3.42,.91,1.46,1.86,2.68,2.81,3.64,1.14,1.15,2.33,2,3.5,2.53v4.91h-.88c-1.67,0-3.05,1.23-3.31,2.84h-3.68c-.28,0-.5,.22-.5,.5v9.84h-1.03c-.28,0-.5,.22-.5,.5v2.74c0,.28,.22,.5,.5,.5h23.92c.28,0,.5-.22,.5-.5v-2.74c0-.28-.22-.5-.5-.5h-1.03v-9.84c0-.28-.22-.5-.5-.5h-3.68c-.25-1.6-1.63-2.84-3.31-2.84h-.88v-4.87c1.21-.53,2.44-1.42,3.61-2.63Zm-.44,10.33h-11.46c.24-1.05,1.17-1.84,2.29-1.84h6.88c1.12,0,2.05,.79,2.29,1.84Zm4.2,1v9.34H15.07v-9.34h19.86Zm-11.49-3.88v-4.49c.55,.16,1.09,.25,1.61,.25h.04c.48,0,.96-.08,1.46-.21v4.46h-3.12ZM12.14,1.38h25.58c.17,10.95-3.62,18.86-7.27,22.64-1.8,1.86-3.7,2.89-5.36,2.9h-.04c-1.67,0-3.58-1.01-5.4-2.85-3.72-3.76-7.61-11.68-7.51-22.69Zm31.51,3.1c.49,.47,.75,1.3,.74,2.41,0,2.7-1.68,7.16-4.77,10.09-1.4,1.33-3.13,2.31-5.04,2.94,2.06-3.8,3.71-8.96,4.07-15.25,2.42-.89,4.19-.96,5-.19ZM10.39,16.98c-3.08-2.9-4.76-7.34-4.77-10.05,0-1.13,.25-1.97,.75-2.45,.79-.76,2.52-.7,4.87,.15,.4,6.27,2.07,11.43,4.15,15.23-1.89-.61-3.61-1.58-4.99-2.88Zm26.07,31.14H13.54v-1.74h22.92v1.74Z"/><path d="M29.39,22.04c.16,0,.31-.07,.41-.21,1.61-2.24,2.93-4.7,3.91-7.3,.93-2.48,1.56-5.07,1.87-7.72,.03-.27-.17-.52-.44-.55-.26-.03-.52,.16-.55,.44-.29,2.56-.9,5.08-1.81,7.48-.95,2.52-2.22,4.9-3.79,7.07-.16,.22-.11,.54,.11,.7,.09,.06,.19,.09,.29,.09Z"/></g></g></g><g id="uuid-ff23724a-d475-4e21-a2fe-688438050fd6"><text transform="translate(-.1 54.62)" font-family="Roboto-Regular, Roboto" font-size="6"><tspan x="0" y="0">t</tspan><tspan x="1.96" y="0" letter-spacing="0em">r</tspan><tspan x="3.93" y="0">ophy</tspan></text></g></svg>

<svg xmlns="http://www.w3.org/2000/svg" viewBox="0 0 50 50"><g id="ef9b25ac-78f5-4404-b5d5-296029d960a5" data-name="ICONS"><path d="M36.43,47.73V36.5H31.17c-.31-1.61-1.23-2.8-2.33-2.8H27.13c0-1.77-.05-3.54-.07-5.32A8.7,8.7,0,0,0,32,25.52c3.65-3.78,7.44-11.69,7.27-22.64H13.64c-.1,11,3.79,18.93,7.51,22.69a11.77,11.77,0,0,0,2.79,2.13c0,2,0,4,0,6H21.66c-1.1,0-2,1.19-2.33,2.8H16.57V47.73H15v1.89H38V47.73H36.43Zm-4.62-4.92H18.19V38.62H31.81Z" fill="#fdd600"/><path d="M17.19,38.12v5.19a.51.51,0,0,0,.5.5H32.31a.51.51,0,0,0,.5-.5V38.12a.5.5,0,0,0-.5-.5H17.69A.5.5,0,0,0,17.19,38.12Zm1,.5H31.81v4.19H18.19Z" fill="#231f20"/><path d="M31.17,24.71a20.88,20.88,0,0,0,2.67-3.51,14.48,14.48,0,0,0,6.46-3.49A16.66,16.66,0,0,0,45.39,6.89a4.22,4.22,0,0,0-1-3.13c-1.08-1-3-1.07-5.65-.16,0-.89.05-1.8,0-2.74a.5.5,0,0,0-.5-.48H11.64a.5.5,0,0,0-.5.49c0,.92,0,1.81,0,2.69-2.6-.87-4.45-.81-5.51.2A4.25,4.25,0,0,0,4.61,6.93,16.59,16.59,0,0,0,9.7,17.71a14.36,14.36,0,0,0,6.43,3.42,20.42,20.42,0,0,0,2.81,3.64,12,12,0,0,0,3.5,2.53v4.9h-.88A3.35,3.35,0,0,0,18.26,35H14.57a.51.51,0,0,0-.5.5v9.84H13a.5.5,0,0,0-.5.5v2.74a.5.5,0,0,0,.5.5H37a.5.5,0,0,0,.5-.5V45.88a.5.5,0,0,0-.5-.5h-1V35.54a.51.51,0,0,0-.5-.5H31.74a3.35,3.35,0,0,0-3.3-2.84h-.88V27.34A11.67,11.67,0,0,0,31.17,24.71ZM30.73,35H19.27a2.36,2.36,0,0,1,2.29-1.84h6.88A2.36,2.36,0,0,1,30.73,35Zm4.2,1v9.34H15.07V36ZM23.44,32.17v-4.5a5.79,5.79,0,0,0,1.61.25h.05a5.85,5.85,0,0,0,1.46-.21v4.46ZM12.14,1.38H37.72c.17,11-3.62,18.86-7.27,22.64-1.8,1.86-3.7,2.89-5.36,2.9h0c-1.66,0-3.58-1-5.4-2.85C15.93,20.31,12,12.39,12.14,1.38Zm31.5,3.1a3.29,3.29,0,0,1,.75,2.41A15.79,15.79,0,0,1,39.62,17a13.41,13.41,0,0,1-5,2.94A36.77,36.77,0,0,0,38.65,4.67C41.06,3.78,42.84,3.71,43.64,4.48ZM10.39,17a15.7,15.7,0,0,1-4.78-10,3.37,3.37,0,0,1,.75-2.45c.79-.75,2.52-.7,4.87.15a36.71,36.71,0,0,0,4.15,15.23A13.21,13.21,0,0,1,10.39,17ZM36.46,48.12H13.54V46.38H36.46Z" fill="#231f20"/><path d="M29.39,22a.49.49,0,0,0,.41-.21,31.45,31.45,0,0,0,3.91-7.3,32.73,32.73,0,0,0,1.87-7.72.5.5,0,0,0-1-.11,31,31,0,0,1-1.81,7.48A30.61,30.61,0,0,1,29,21.25a.51.51,0,0,0,.11.7A.52.52,0,0,0,29.39,22Z" fill="#231f20"/></g><g id="a0f1ce03-25e7-4199-bb35-ea7a7ab0e1d5" data-name="LABELS"><text transform="translate(-0.1 54.62)" font-size="6" fill="#231f20" font-family="Roboto-Regular, Roboto">t<tspan x="1.96" y="0" letter-spacing="-0.01em">r</tspan><tspan x="3.93" y="0">ophy</tspan></text></g></svg>
